build/category/AreaChartSolid.svg

<svg xmlns="http://www.w3.org/2000/svg" fill="none" viewBox="0 0 24 24" focusable="false"><path d="M0 0H24V24H0z" transform="matrix(1 0 0 -1 0 24)"/><path fill="#74767B" fill-rule="evenodd" d="M3.37988 19.3447C3.37988 18.9857 3.6709 18.6947 4.02988 18.6947L4.74733 18.6947L4.74732 8.91125C4.74732 7.4389 6.31655 6.49768 7.61548 7.19094L9.99508 8.46097C10.212 8.57676 10.4757 8.56021 10.6765 8.41819L16.3071 4.43524C17.5987 3.52165 19.3833 4.44522 19.3833 6.02721L19.3833 18.6947L19.9952 18.6947C20.3541 18.6947 20.6452 18.9857 20.6452 19.3447C20.6452 19.7037 20.3541 19.9947 19.9952 19.9947L4.02988 19.9947C3.6709 19.9947 3.37988 19.7037 3.37988 19.3447ZM6.04733 15.3724C6.23854 15.2618 6.46053 15.1985 6.69731 15.1985L10.7513 15.1985C10.987 15.1985 11.2183 15.1344 11.4203 15.0131L16.7642 11.8058C17.2011 11.5436 17.698 11.5722 18.0833 11.7946L18.0833 6.02721C18.0833 5.49988 17.4884 5.19202 17.0579 5.49655L11.4272 9.47951C10.825 9.90554 10.0338 9.95521 9.38297 9.60785L7.00337 8.33781C6.57039 8.10673 6.04732 8.42047 6.04732 8.91125L6.04733 15.3724Z"/></svg>

<svg xmlns="http://www.w3.org/2000/svg" fill="none" viewBox="0 0 24 24" focusable="false"><path fill="#74767B" fill-rule="evenodd" d="M3.37 19.34c0-.36.3-.65.65-.65h.72V8.91c0-1.48 1.57-2.42 2.87-1.72l2.38 1.27c.22.11.48.1.68-.05l5.63-3.98c1.29-.91 3.08.01 3.08 1.59v12.67h.61c.36 0 .65.29.65.65s-.29.65-.65.65H4.02c-.35 0-.65-.29-.65-.65m2.67-3.97c.19-.11.42-.18.65-.18h4.06c.23 0 .46-.06.67-.18l5.34-3.21a1.3 1.3 0 0 1 1.32-.01V6.02c0-.53-.6-.83-1.03-.53l-5.63 3.98c-.6.43-1.39.48-2.04.13L7 8.33a.657.657 0 0 0-.96.58z"/></svg>
